X:800
T:Jolly Tinker, The
R:reel
H:This is the Donegal version from John Doherty. See also #237.
D:Paddy Glackin & Robbie Hannan: The Whirlwind
D:Martin O'Connor: The Connachtman's Rambles
Z:id:hn-reel-800
M:C|
K:Dmix
Addc AGEG|Addc AcGc|Addc AdcA|1 GcEF GEFG:|2 GcEF GcBG||
|:AD~D2 AGEG|AGAB cABc|AGcA ~G3c|1 AdcA GcBc:|2 AdcA GABc||
|:~d3e c2ce|dAAd fage|~d3B cBcA|1 (3Bcd ef gfge:|2 (3Bcd ef gefg||
|:ad~d2 adbd|afdf adfg|ad~d2 abaf|ge^ce gefg|
ad~d2 adbd|afdf adfg|~a3g (3efg ed|1 (3Bcd ef gefg:|2 (3Bcd ef gefe||
